illustfolio3/dist/images/compare_tag.svg

<svg width="40" height="40" viewBox="0 0 40 40" fill="none" xmlns="http://www.w3.org/2000/svg">
<mask id="mask0_1636_418" style="mask-type:alpha" maskUnits="userSpaceOnUse" x="0" y="0" width="40" height="40">
<rect width="40" height="40" fill="#D9D9D9"/>
</mask>
<g mask="url(#mask0_1636_418)">
<path d="M14.3887 26.6944L12.9582 32.3194C12.8935 32.625 12.7453 32.8703 12.5137 33.0553C12.2823 33.2405 12.0092 33.3332 11.6945 33.3332C11.2592 33.3332 10.9027 33.1619 10.6249 32.8194C10.3471 32.4766 10.2684 32.0923 10.3887 31.6665L11.6387 26.6944H6.76365C6.31921 26.6944 5.95351 26.5161 5.66657 26.1594C5.37962 25.803 5.29629 25.4072 5.41657 24.9719C5.48129 24.6572 5.63865 24.4026 5.88865 24.2082C6.13865 24.0137 6.43032 23.9165 6.76365 23.9165H12.3332L14.3053 16.0832H9.43032C8.98588 16.0832 8.62018 15.905 8.33324 15.5486C8.04629 15.1919 7.96296 14.7961 8.08324 14.3611C8.14796 14.0461 8.30532 13.7914 8.55532 13.5969C8.80532 13.4025 9.09699 13.3053 9.43032 13.3053H14.9999L16.4028 7.68025C16.4675 7.3747 16.6156 7.12942 16.847 6.94442C17.0787 6.75914 17.3518 6.6665 17.6666 6.6665C18.1018 6.6665 18.4537 6.83317 18.722 7.1665C18.9906 7.49984 19.0739 7.87942 18.972 8.30525L17.7499 13.3053H25.6112L27.0137 7.68025C27.0787 7.3747 27.2268 7.12942 27.4582 6.94442C27.6896 6.75914 27.9628 6.6665 28.2778 6.6665C28.7128 6.6665 29.0646 6.83317 29.3332 7.1665C29.6018 7.49984 29.6852 7.87942 29.5832 8.30525L28.3612 13.3053H33.2362C33.6806 13.3053 34.0463 13.4836 34.3332 13.8403C34.6202 14.1966 34.7035 14.5925 34.5832 15.0278C34.5185 15.3425 34.3612 15.5971 34.1112 15.7915C33.8612 15.9859 33.5695 16.0832 33.2362 16.0832H27.6666L25.6945 23.9165H30.5695C31.0139 23.9165 31.3796 24.0947 31.6666 24.4511C31.9535 24.8078 32.0368 25.2036 31.9166 25.6386C31.8518 25.9536 31.6945 26.2083 31.4445 26.4028C31.1945 26.5972 30.9028 26.6944 30.5695 26.6944H24.9999L23.5695 32.3194C23.5045 32.625 23.3563 32.8703 23.1249 33.0553C22.8935 33.2405 22.6203 33.3332 22.3053 33.3332C21.8703 33.3332 21.5139 33.1619 21.2362 32.8194C20.9584 32.4766 20.8796 32.0923 20.9999 31.6665L22.2499 26.6944H14.3887ZM15.0832 23.9165H22.9445L24.9166 16.0832H17.0553L15.0832 23.9165Z" fill="#4B4B4B"/>
</g>
</svg>

<svg width="40" height="40" fill="none" xmlns="http://www.w3.org/2000/svg"><mask id="a" style="mask-type:alpha" maskUnits="userSpaceOnUse" x="0" y="0" width="40" height="40"><path fill="#D9D9D9" d="M0 0h40v40H0z"/></mask><g mask="url(#a)"><path d="m14.389 26.694-1.43 5.625a1.248 1.248 0 0 1-.445.736 1.272 1.272 0 0 1-.82.278c-.435 0-.791-.171-1.07-.514a1.211 1.211 0 0 1-.235-1.153l1.25-4.972H6.764c-.445 0-.81-.178-1.097-.535a1.261 1.261 0 0 1-.25-1.187c.064-.315.222-.57.472-.764.25-.194.541-.291.875-.291h5.57l1.971-7.834H9.43c-.444 0-.81-.178-1.097-.534a1.262 1.262 0 0 1-.25-1.188c.065-.315.222-.57.472-.764.25-.194.542-.292.875-.292H15l1.403-5.625a1.24 1.24 0 0 1 .444-.736c.232-.185.505-.277.82-.277.435 0 .787.166 1.055.5.269.333.352.712.25 1.138l-1.222 5h7.861l1.403-5.625c.065-.305.213-.55.444-.736.232-.185.505-.277.82-.277.435 0 .787.166 1.055.5.269.333.352.712.25 1.138l-1.222 5h4.875c.445 0 .81.179 1.097.535.287.357.37.752.25 1.188-.064.314-.222.57-.472.763a1.38 1.38 0 0 1-.875.292h-5.57l-1.971 7.834h4.875c.444 0 .81.178 1.097.534.286.357.37.753.25 1.188a1.26 1.26 0 0 1-.473.764c-.25.194-.541.291-.874.291H25l-1.43 5.625a1.248 1.248 0 0 1-.445.736 1.272 1.272 0 0 1-.82.278c-.435 0-.791-.171-1.069-.514A1.212 1.212 0 0 1 21 31.666l1.25-4.972h-7.861Zm.694-2.777h7.862l1.972-7.834h-7.862l-1.972 7.834Z" fill="#4B4B4B"/></g></svg>
